images/s2.svg

<svg width="20" height="20" viewBox="0 0 20 20" fill="none" xmlns="http://www.w3.org/2000/svg">
<path d="M17.9442 4.98436C17.9569 5.2031 17.9569 5.42188 17.9569 5.64062C17.9569 12.3125 13.8326 20 6.29444 20C3.97209 20 1.81473 19.1718 0 17.7344C0.329962 17.7812 0.64719 17.7969 0.989848 17.7969C2.90607 17.7969 4.67006 17 6.0787 15.6406C4.27666 15.5938 2.7665 14.1406 2.24618 12.1406C2.50001 12.1875 2.7538 12.2187 3.02032 12.2187C3.38833 12.2187 3.75638 12.1562 4.099 12.0469C2.22083 11.5781 0.812152 9.54687 0.812152 7.09374V7.03126C1.35782 7.40627 1.99239 7.64064 2.66493 7.67185C1.56087 6.76558 0.837542 5.21873 0.837542 3.46871C0.837542 2.53123 1.04055 1.67186 1.3959 0.921852C3.41369 3.98435 6.44671 5.98432 9.84769 6.2031C9.78426 5.8281 9.74617 5.43752 9.74617 5.04688C9.74617 2.2656 11.5736 0 13.8452 0C15.0254 0 16.0914 0.609373 16.8401 1.59375C17.7665 1.37501 18.6548 0.953114 19.4416 0.375003C19.137 1.5469 18.4898 2.53128 17.6396 3.15624C18.4645 3.04691 19.264 2.7656 20 2.37502C19.4417 3.37498 18.7437 4.26557 17.9442 4.98436Z" fill="white"/>
</svg>

<svg width="20" height="20" fill="none" xmlns="http://www.w3.org/2000/svg"><path d="M17.944 4.984c.013.22.013.438.013.657C17.957 12.312 13.833 20 6.294 20c-2.322 0-4.48-.828-6.294-2.266.33.047.647.063.99.063 1.916 0 3.68-.797 5.089-2.156-1.802-.047-3.312-1.5-3.833-3.5.254.046.508.078.774.078.368 0 .736-.063 1.079-.172-1.878-.469-3.287-2.5-3.287-4.953V7.03c.546.375 1.18.61 1.853.64C1.56 6.767.838 5.22.838 3.47c0-.938.203-1.797.558-2.547 2.018 3.062 5.05 5.062 8.452 5.281a6.968 6.968 0 0 1-.102-1.156c0-2.781 1.828-5.047 4.1-5.047 1.18 0 2.245.61 2.994 1.594A7.224 7.224 0 0 0 19.442.375c-.305 1.172-.952 2.156-1.802 2.781A7.042 7.042 0 0 0 20 2.375c-.558 1-1.256 1.89-2.056 2.61Z" fill="#fff"/></svg>
